X: 5204
T: Forty and Counting
P: the Earl of Seafield's Reel
C: Donald Grant
S: RSCDS 52-04
R: reel
Z: 2019 John Chambers <jc:trillian.mit.edu>
M: C|
L: 1/8
K: D
A |\
"D"d2AG "F#/D"FDDF | "Em7"EB,ED "A7"CA,A,A |\
"D"FDFA "G"BGBd | "A7"ceAc "D"df"A7"ec |
"D"d2Ad "Bm"FDDF | "E"EB,"G#/E7"ED "A7"CEA,G |\
"D7"FDFA "G"BGBd | "A7"cAec "D"d2"A7"de/g/||
"D"f2df "Em"geeg | "G#/E7"fded "A7"cAAg |\
"D"f2df "Em"geeg | "A7"fdec "D"d2"A7"dg |
"D"f2df "Em"geeg | "Em"fd"G#/E7"ed "A7"cAAg |\
"D"fedf "Em"gfeg | "A7"faef "D"d2d |]
